ekrany/assets/img/svg/price-2.svg

<svg width="147" height="134" viewBox="0 0 147 134" fill="none" xmlns="http://www.w3.org/2000/svg">
<path d="M3.65604 133H1.29512L1 1H3.26255M3.65604 133L3.26255 1M3.65604 133L145.41 95.3982L146 7.00447L3.26255 1M14.6737 118.235V14.1902L140.491 15.4698L139.803 89L14.6737 118.235Z" stroke="#232323" stroke-opacity="0.6"/>
<path d="M62.3535 63H61.7559V54.9961H56.8105V63H56.2129V54.4336H62.3535V63ZM68.5 63L68.3535 61.9922H68.3066C67.9863 62.4023 67.6562 62.6934 67.3164 62.8652C66.9805 63.0332 66.582 63.1172 66.1211 63.1172C65.4961 63.1172 65.0098 62.957 64.6621 62.6367C64.3145 62.3164 64.1406 61.873 64.1406 61.3066C64.1406 60.6855 64.3984 60.2031 64.9141 59.8594C65.4336 59.5156 66.1836 59.334 67.1641 59.3145L68.377 59.2793V58.8574C68.377 58.252 68.2539 57.7949 68.0078 57.4863C67.7617 57.1777 67.3652 57.0234 66.8184 57.0234C66.2285 57.0234 65.6172 57.1875 64.9844 57.5156L64.7676 57.0117C65.4668 56.6836 66.1582 56.5195 66.8418 56.5195C67.541 56.5195 68.0625 56.7012 68.4062 57.0645C68.7539 57.4277 68.9277 57.9941 68.9277 58.7637V63H68.5ZM66.1562 62.5898C66.8359 62.5898 67.3711 62.3965 67.7617 62.0098C68.1562 61.6191 68.3535 61.0781 68.3535 60.3867V59.7598L67.2402 59.8066C66.3457 59.8496 65.707 59.9902 65.3242 60.2285C64.9453 60.4629 64.7559 60.8301 64.7559 61.3301C64.7559 61.7285 64.877 62.0391 65.1191 62.2617C65.3652 62.4805 65.7109 62.5898 66.1562 62.5898ZM71.5762 56.6309V59.4258H75.6191V56.6309H76.1934V63H75.6191V59.9297H71.5762V63H70.9961V56.6309H71.5762ZM80.9043 63.1172C79.9785 63.1172 79.2559 62.832 78.7363 62.2617C78.2207 61.6914 77.9629 60.8926 77.9629 59.8652C77.9629 58.8496 78.2129 58.0371 78.7129 57.4277C79.2129 56.8145 79.8867 56.5078 80.7344 56.5078C81.4844 56.5078 82.0762 56.7695 82.5098 57.293C82.9434 57.8164 83.1602 58.5273 83.1602 59.4258V59.8945H78.5723C78.5801 60.7695 78.7832 61.4375 79.1816 61.8984C79.584 62.3594 80.1582 62.5898 80.9043 62.5898C81.2676 62.5898 81.5859 62.5645 81.8594 62.5137C82.1367 62.4629 82.4863 62.3535 82.9082 62.1855V62.7129C82.5488 62.8691 82.2168 62.9746 81.9121 63.0293C81.6074 63.0879 81.2715 63.1172 80.9043 63.1172ZM80.7344 57.0234C80.1211 57.0234 79.6289 57.2266 79.2578 57.6328C78.8867 58.0352 78.6699 58.6172 78.6074 59.3789H82.5449C82.5449 58.6406 82.3848 58.0645 82.0645 57.6504C81.7441 57.2324 81.3008 57.0234 80.7344 57.0234ZM89.3242 63H88.75V57.1699H86.4941C86.377 58.7129 86.2324 59.8906 86.0605 60.7031C85.8926 61.5117 85.6738 62.1074 85.4043 62.4902C85.1387 62.8691 84.793 63.0586 84.3672 63.0586C84.2148 63.0586 84.082 63.043 83.9688 63.0117V62.4844C84.043 62.5078 84.1484 62.5195 84.2852 62.5195C84.7266 62.5195 85.082 62.0547 85.3516 61.125C85.625 60.1914 85.832 58.6934 85.9727 56.6309H89.3242V63ZM92.0371 59.3145H94.2812C95.7773 59.3145 96.5254 59.9023 96.5254 61.0781C96.5254 61.6836 96.3164 62.1562 95.8984 62.4961C95.4805 62.832 94.8809 63 94.0996 63H91.457V56.6309H92.0371V59.3145ZM92.0371 59.8652V62.4492H94.1934C94.748 62.4492 95.1719 62.332 95.4648 62.0977C95.7617 61.8633 95.9102 61.5195 95.9102 61.0664C95.9102 60.6445 95.7793 60.3398 95.5176 60.1523C95.2559 59.9609 94.8027 59.8652 94.1582 59.8652H92.0371Z" fill="#232323"/>
</svg>

<svg width="147" height="134" fill="none" xmlns="http://www.w3.org/2000/svg"><path d="M3.656 133h-2.36L1 1h2.263m.393 132L3.263 1m.393 132L145.41 95.398 146 7.004 3.263 1m11.41 117.235V14.19l125.818 1.28-.688 73.53-125.13 29.235z" stroke="#232323" stroke-opacity=".6"/><path d="M62.353 63h-.597v-8.004H56.81V63h-.597v-8.566h6.14V63zm6.147 0l-.147-1.008h-.046c-.32.41-.65.701-.99.873-.336.168-.735.252-1.196.252-.625 0-1.111-.16-1.459-.48-.348-.32-.521-.764-.521-1.33 0-.622.257-1.104.773-1.448.52-.343 1.27-.525 2.25-.544l1.213-.036v-.422c0-.605-.123-1.062-.37-1.37-.245-.31-.642-.464-1.189-.464-.59 0-1.2.164-1.834.493l-.216-.504c.699-.328 1.39-.492 2.074-.492.699 0 1.22.181 1.564.544.348.364.522.93.522 1.7V63H68.5zm-2.344-.41c.68 0 1.215-.194 1.606-.58.394-.39.591-.932.591-1.623v-.627l-1.113.047c-.894.043-1.533.183-1.916.421-.379.235-.568.602-.568 1.102 0 .398.121.71.363.932.246.218.592.328 1.037.328zm5.42-5.96v2.796h4.043V56.63h.574V63h-.574v-3.07h-4.043V63h-.58v-6.37h.58zm9.328 6.487c-.925 0-1.648-.285-2.168-.855-.515-.57-.773-1.37-.773-2.397 0-1.015.25-1.828.75-2.437.5-.613 1.174-.92 2.021-.92.75 0 1.342.261 1.776.785.433.523.65 1.234.65 2.133v.468h-4.588c.008.876.211 1.544.61 2.004.402.461.976.692 1.722.692.364 0 .682-.026.955-.076a5.76 5.76 0 001.05-.329v.528a4.54 4.54 0 01-.997.316c-.305.059-.64.088-1.008.088zm-.17-6.094c-.613 0-1.105.204-1.476.61-.371.402-.588.984-.65 1.746h3.937c0-.738-.16-1.314-.48-1.729-.32-.418-.764-.627-1.33-.627zM89.324 63h-.574v-5.83h-2.256c-.117 1.543-.262 2.72-.433 3.533-.168.809-.387 1.404-.657 1.787-.265.38-.611.569-1.037.569-.152 0-.285-.016-.398-.047v-.528c.074.024.18.035.316.035.442 0 .797-.464 1.067-1.394.273-.934.48-2.432.62-4.494h3.352V63zm2.713-3.685h2.244c1.496 0 2.244.587 2.244 1.763 0 .606-.209 1.078-.627 1.418-.417.336-1.017.504-1.798.504h-2.643v-6.37h.58v2.684zm0 .55v2.584h2.156c.555 0 .979-.117 1.272-.351.297-.235.445-.578.445-1.032 0-.422-.13-.726-.392-.914-.262-.191-.715-.287-1.36-.287h-2.12z" fill="#232323"/></svg>
